X:10
T:Bothwell Castle
S:MacDonald - Skye Collection
M:C
L:1/8
K:B_
D>EF>E DB~Bd|D>EF>D (A,/C/F/A/) (cd)|D>E (F/>E/)(F/>E/) DBfd|
(e/d/)c/B/ (A/g/)f/e/ dBB:|
~f|d'>c'/2b/2 (3a/g/f/ (3e/d/c/ B~fd~b|f/>d/b/>f/ d'/>b/ (f/d/B/ Acc~f|
d'>c' {c'}b/a/b/g/ {g}(f/=e/)f/g/ a/f/g/a/|(b/g/)a/b/ (c'/a/)(b/g/) fbb b/>c'/|
d'/(b/a/)b/ c'/(a/g/)a/ b/(a/^f/)g/ a/(=f/^e/)f/|g/(e/d/)e/ (f/B/)(g/B/) Acc
(f/2g/2a/)|
[d2b2] [e2g2] [Ac][Af] d (B/2c/2d/)|e>d (3c/d/B/ (3A/B/G/ (FB)B||
